src/img/ic_warn.svg

<svg width="12" height="13" viewBox="0 0 12 13" fill="none" xmlns="http://www.w3.org/2000/svg">
<g id="icon / small / attention" clip-path="url(#clip0_5002_30983)">
<path id="Subtract" fill-rule="evenodd" clip-rule="evenodd" d="M0.672123 11.1276C0.288624 11.1276 0.0478911 10.7137 0.237541 10.3803L5.56529 1.01641C5.75702 0.679426 6.24272 0.679426 6.43446 1.01641L11.7622 10.3803C11.9519 10.7137 11.7111 11.1276 11.3276 11.1276H0.672123ZM5.21344 4.10603C5.21148 4.04948 5.2568 4.00257 5.31338 4.00257H6.6865C6.74308 4.00257 6.7884 4.04948 6.78644 4.10603L6.66168 7.71093C6.65982 7.76478 6.61562 7.80747 6.56174 7.80747H5.43814C5.38426 7.80747 5.34006 7.76478 5.3382 7.71093L5.21344 4.10603ZM5.2756 8.63919C5.2756 8.58396 5.32038 8.53919 5.3756 8.53919H6.62408C6.67931 8.53919 6.72408 8.58396 6.72408 8.63919V9.90262C6.72408 9.95785 6.67931 10.0026 6.62408 10.0026H5.3756C5.32038 10.0026 5.2756 9.95785 5.2756 9.90262V8.63919Z" fill="white"/>
</g>
<defs>
<clipPath id="clip0_5002_30983">
<rect width="12" height="12" fill="white" transform="translate(0 0.626953)"/>
</clipPath>
</defs>
</svg>

<svg xmlns="http://www.w3.org/2000/svg" width="12" height="12" fill="none" viewBox="0 0 12 12">
  <path fill="currentColor" fill-rule="evenodd"
    d="M.672 11.128a.5.5 0 0 1-.434-.748l5.327-9.364a.5.5 0 0 1 .87 0l5.327 9.364a.5.5 0 0 1-.434.748H.672Zm4.541-7.022a.1.1 0 0 1 .1-.103h1.373a.1.1 0 0 1 .1.103l-.124 3.605a.1.1 0 0 1-.1.096H5.438a.1.1 0 0 1-.1-.096l-.125-3.605Zm.063 4.533a.1.1 0 0 1 .1-.1h1.248a.1.1 0 0 1 .1.1v1.264a.1.1 0 0 1-.1.1H5.376a.1.1 0 0 1-.1-.1V8.639Z"
    clip-rule="evenodd" />
</svg>
